icons/folder_type_include_opened.svg

<svg xmlns="http://www.w3.org/2000/svg" viewBox="0 0 32 32"><path d="M27.4 5.5h-9.2l-2.1 4.2H4.3v16.8h25.2v-21Zm0 18.7H6.6V11.8h20.8Zm0-14.5h-8.2l1-2.1h7.1v2.1Z" style="fill:#9b9b9b"/><path d="M25.7 13.7H.5l3.8 12.8h25.2l-3.8-12.8z" style="fill:#9b9b9b"/><path d="M15.266 11.311v18.375h14.449v-15.1h-3.6v-3.275Zm12.146.813.008 1.158h1.252l-1.26-1.16Z" style="fill:gray"/><path d="M27.028 10H15.281a1.316 1.316 0 0 0-1.312 1.313v18.375A1.316 1.316 0 0 0 15.281 31h14.438a1.316 1.316 0 0 0 1.313-1.312V13.642Zm.394 2.133 1.247 1.148h-1.247ZM15.281 29.688V11.313h10.828v3.281h3.609v15.094Z" style="fill:#c5c5c5"/><path d="m17.523 27.326 5.577-5.577-5.577-5.577v3.489H10.1v4.176h7.423v3.489z" style="fill:#c5c5c5"/></svg>

<svg xmlns="http://www.w3.org/2000/svg" viewBox="0 0 32 32"><title>folder_type_include_opened</title><path d="M27.4,5.5H18.2L16.1,9.7H4.3V26.5H29.5V5.5Zm0,18.7H6.6V11.8H27.4Zm0-14.5H19.2l1-2.1h7.1V9.7Z" style="fill:#9b9b9b"/><polygon points="25.7 13.7 0.5 13.7 4.3 26.5 29.5 26.5 25.7 13.7" style="fill:#9b9b9b"/><path d="M15.266,11.311V29.686H29.715v-15.1h-3.6V11.311Zm12.146.813.008,1.158h1.252l-1.26-1.16Z" style="fill:gray"/><path d="M27.028,10H15.281a1.316,1.316,0,0,0-1.312,1.313V29.688A1.316,1.316,0,0,0,15.281,31H29.719a1.316,1.316,0,0,0,1.313-1.312V13.642Zm.394,2.133,1.247,1.148H27.422ZM15.281,29.688V11.313H26.109v3.281h3.609V29.688Z" style="fill:#c5c5c5"/><polygon points="17.523 27.326 23.1 21.749 17.523 16.172 17.523 19.661 10.1 19.661 10.1 23.837 17.523 23.837 17.523 27.326" style="fill:#c5c5c5"/></svg>
